src/pos-icons/keyboard-caps.svg

<svg height="24" viewBox="0 0 24 24" width="24" xmlns="http://www.w3.org/2000/svg"><path d="m6 18h12v-2h-12m6-7.59 4.59 4.59 1.41-1.42-6-6-6 6 1.41 1.42z"/></svg>

<?xml version="1.0" encoding="UTF-8"?><!DOCTYPE svg PUBLIC "-//W3C//DTD SVG 1.1//EN" "http://www.w3.org/Graphics/SVG/1.1/DTD/svg11.dtd"><svg xmlns="http://www.w3.org/2000/svg" xmlns:xlink="http://www.w3.org/1999/xlink" version="1.1" id="mdi-keyboard-caps" width="24" height="24" viewBox="0 0 24 24"><path d="M6,18H18V16H6M12,8.41L16.59,13L18,11.58L12,5.58L6,11.58L7.41,13L12,8.41Z" /></svg>
